X:104
T:New Chaplain. JBs.104
R:Jig
S:Jas.Blackshaw MS, 1837, N.Shropshire
A:North Shropshire
Z:T. Weatherall 2006
M:6/8
L:1/8
Q:3/8=120
R:Quadrille
K:C
g|gag efd|cBc dBG|E2Gc2e|e2dd2g|!
gaf efd|cBc dBG|E2Gc2d|e2cc2:|!
|:z|câ€™3ce>c|câ€™3ce>c|Bcd d2d|Bcd d2d|!
câ€™3ce>c|câ€™3ce>c|G2ce2d|e2cc2:|!
|:z|e2ga2g|e2ga2g|a2gf2e|e2dd3|!
e2ga2g|e2ga2g|a2ga2b|câ€™2cc2:|

